Origami/24x24/apps/choqok.svg

<svg width="24" height="24" version="1.1" viewBox="0 0 24 24" xmlns="http://www.w3.org/2000/svg">
 <path d="M 12,2.9762 11.047619,4 10,3.5 9.2916667,4.6578 C 7.0981429,5.1091 5.5482286,6.1692 4.2637667,7.845 2.0171333,10.7762 2,15.8333 2,18.6905 2,21.5476 7.2380952,22.5 12,22.5 16.761905,22.5 22,21.5476 22,18.6905 22,15.8333 21.98286,10.7762 19.736233,7.845 18.451771,6.1692 16.901857,5.1091 14.708333,4.6578 L 14,3.5 12.952381,4 Z" style="opacity:.2"/>
 <path d="M 12,2 11.047619,3.5 10,3 9.2916667,4.1578 C 7.0981429,4.6091 5.5482286,5.6692 4.2637667,7.345 2.0171333,10.2762 2,15.3333 2,18.1905 2,21.0476 7.2380952,22 12,22 16.761905,22 22,21.0476 22,18.1905 22,15.3333 21.98286,10.2762 19.736233,7.345 18.451771,5.6692 16.901857,4.6091 14.708333,4.1578 L 14,3 12.952381,3.5 Z" style="fill:#81b427"/>
 <circle cx="17" cy="13.5" r="2" style="opacity:.2"/>
 <path d="m9.638915 17.6346c0.487125 0.8437 1.38684 1.364 2.361085 1.3654 0.974245 0 1.87396-0.5217 2.361085-1.3654h-2.361085z" style="fill:#86572f"/>
 <path d="m12.000001 14.5c-0.114877 1e-4 -0.225771 0.046-0.307113 0.1297l-2.5518255 2.3176c-0.273062 0.2801-0.1294515 1.1081 0.2568575 1.1083l2.602081 0.4444 2.60208-0.4444c0.386304-2e-4 0.52992-0.8282 0.256858-1.1083l-2.551826-2.3176c-0.08134-0.083-0.192235-0.1296-0.307112-0.1297z" style="opacity:.2"/>
 <path d="m12.000001 14c-0.114877 1e-4 -0.225771 0.046-0.307113 0.1297l-2.5518255 2.3176c-0.273062 0.2801-0.1294515 1.1081 0.2568575 1.1083l2.602081 0.4444 2.60208-0.4444c0.386304-2e-4 0.52992-0.8282 0.256858-1.1083l-2.551826-2.3176c-0.08134-0.083-0.192235-0.1296-0.307112-0.1297z" style="fill:#ffc12e"/>
 <path d="m12 14c-0.114877 1e-4 -0.225299 0.04521-0.306641 0.128906l-2.552734 2.31836c-0.1453887 0.149136-0.1661594 0.447083-0.1015625 0.699218 0.023174-0.07739 0.05267-0.149066 0.1015625-0.199218l2.552734-2.31836c0.081342-0.0837 0.191764-0.128806 0.306641-0.128906 0.114877 1e-4 0.225301 0.04591 0.306641 0.128906l2.552734 2.31836c0.04889 0.05015 0.07839 0.121832 0.101563 0.199218 0.0646-0.252135 0.04383-0.550082-0.101563-0.699218l-2.552734-2.31836c-0.08134-0.083-0.191764-0.128806-0.306641-0.128906z" style="fill:#ffffff;opacity:.2"/>
 <path d="M 12,2 11.046875,3.5 10,3 9.2910156,4.1582031 c -2.1935238,0.4513 -3.7428818,1.5117 -5.0273437,3.1875 C 2.0170385,10.276903 2,15.334206 2,18.191406 c 0,0.01966 0.00537,0.03716 0.00586,0.05664 0.00565,-2.908983 0.1112522,-7.60171 2.2578125,-10.4023439 1.2844619,-1.6758 2.8338199,-2.7362 5.0273437,-3.1875 L 10,3.5 11.046875,4 12,2.5 12.953125,4 14,3.5 14.708984,4.6582031 c 2.193524,0.4513 3.742882,1.5117 5.027344,3.1875 2.146554,2.8006339 2.25216,7.4933609 2.257813,10.4023439 4.94e-4,-0.01948 0.0059,-0.03698 0.0059,-0.05664 0,-2.8572 -0.01704,-7.914503 -2.263672,-10.8457029 -1.284462,-1.6758 -2.83382,-2.7362 -5.027344,-3.1875 L 14,3 12.953125,3.5 12,2 Z" style="fill:#ffffff;opacity:.2"/>
 <circle cx="17" cy="13" r="2" style="fill:#ffffff"/>
 <path d="m 7,12.500093 a 2,2 0 0 0 -2,2 2,2 0 0 0 0.064453,0.503906 A 2,2 0 0 1 7,13.500093 2,2 0 0 1 8.9355469,14.996187 2,2 0 0 0 9,14.500093 a 2,2 0 0 0 -2,-2 z" style="opacity:.2"/>
 <path d="m 7,12.000094 a 2,2 0 0 0 -2,2 A 2,2 0 0 0 5.0644531,14.504 2,2 0 0 1 7,13.000094 2,2 0 0 1 8.9355469,14.496188 2,2 0 0 0 9,14.000094 a 2,2 0 0 0 -2,-2 z" style="fill:#ffffff"/>
 <circle cx="17" cy="13" r="1" style="fill:#3f3f3f"/>
</svg>

<svg xmlns="http://www.w3.org/2000/svg" width="24" height="24" version="1.1" viewBox="0 0 24 24">
 <path style="opacity:0.2" d="M 12,2.9762 11.047619,4 10,3.5 9.2916667,4.6578 C 7.0981429,5.1091 5.5482286,6.1692 4.2637667,7.845 2.0171333,10.7762 2,15.8333 2,18.6905 2,21.5476 7.2380952,22.5 12,22.5 16.761905,22.5 22,21.5476 22,18.6905 22,15.8333 21.98286,10.7762 19.736233,7.845 18.451771,6.1692 16.901857,5.1091 14.708333,4.6578 L 14,3.5 12.952381,4 Z"/>
 <path d="M 12,2 11.047619,3.5 10,3 9.2916667,4.1578 C 7.0981429,4.6091 5.5482286,5.6692 4.2637667,7.345 2.0171333,10.2762 2,15.3333 2,18.1905 2,21.0476 7.2380952,22 12,22 16.761905,22 22,21.0476 22,18.1905 22,15.3333 21.98286,10.2762 19.736233,7.345 18.451771,5.6692 16.901857,4.6091 14.708333,4.1578 L 14,3 12.952381,3.5 Z" style="fill:#81b427"/>
 <circle cx="17" cy="13.5" r="2" style="opacity:0.2"/>
 <path d="M 9.638915,17.6346 C 10.12604,18.4783 11.025755,18.9986 12,19 c 0.974245,0 1.87396,-0.5217 2.361085,-1.3654 L 12,17.6346 Z" style="fill:#86572f"/>
 <path style="opacity:0.2" d="m 12.000001,14.5 c -0.114877,10e-5 -0.225771,0.046 -0.307113,0.1297 L 9.1410625,16.9473 C 8.8680005,17.2274 9.011611,18.0554 9.39792,18.0556 l 2.602081,0.4444 2.60208,-0.4444 c 0.386304,-2e-4 0.52992,-0.8282 0.256858,-1.1083 L 12.307113,14.6297 C 12.225773,14.5467 12.114878,14.5001 12.000001,14.5 Z"/>
 <path d="m 12.000001,14 c -0.114877,10e-5 -0.225771,0.046 -0.307113,0.1297 L 9.1410625,16.4473 C 8.8680005,16.7274 9.011611,17.5554 9.39792,17.5556 L 12.000001,18 l 2.60208,-0.4444 c 0.386304,-2e-4 0.52992,-0.8282 0.256858,-1.1083 L 12.307113,14.1297 C 12.225773,14.0467 12.114878,14.0001 12.000001,14 Z" style="fill:#ffc12e"/>
 <path d="m 12,14 c -0.114877,10e-5 -0.225299,0.04521 -0.306641,0.128906 l -2.552734,2.31836 c -0.1453887,0.149136 -0.1661594,0.447083 -0.1015625,0.699218 0.023174,-0.07739 0.05267,-0.149066 0.1015625,-0.199218 l 2.552734,-2.31836 C 11.774701,14.545206 11.885123,14.5001 12,14.5 c 0.114877,10e-5 0.225301,0.04591 0.306641,0.128906 l 2.552734,2.31836 c 0.04889,0.05015 0.07839,0.121832 0.101563,0.199218 0.0646,-0.252135 0.04383,-0.550082 -0.101563,-0.699218 l -2.552734,-2.31836 C 12.225301,14.045906 12.114877,14.0001 12,14 Z" style="opacity:0.2;fill:#ffffff"/>
 <path d="M 12,2 11.046875,3.5 10,3 9.2910156,4.1582031 c -2.1935238,0.4513 -3.7428818,1.5117 -5.0273437,3.1875 C 2.0170385,10.276903 2,15.334206 2,18.191406 c 0,0.01966 0.00537,0.03716 0.00586,0.05664 0.00565,-2.908983 0.1112522,-7.60171 2.2578125,-10.4023439 1.2844619,-1.6758 2.8338199,-2.7362 5.0273437,-3.1875 L 10,3.5 11.046875,4 12,2.5 12.953125,4 14,3.5 14.708984,4.6582031 c 2.193524,0.4513 3.742882,1.5117 5.027344,3.1875 2.146554,2.8006339 2.25216,7.4933609 2.257813,10.4023439 4.94e-4,-0.01948 0.0059,-0.03698 0.0059,-0.05664 0,-2.8572 -0.01704,-7.914503 -2.263672,-10.8457029 -1.284462,-1.6758 -2.83382,-2.7362 -5.027344,-3.1875 L 14,3 12.953125,3.5 12,2 Z" style="opacity:0.2;fill:#ffffff"/>
 <circle style="fill:#ffffff" cx="17" cy="13" r="2"/>
 <path d="m 7,12.500093 a 2,2 0 0 0 -2,2 2,2 0 0 0 0.064453,0.503906 A 2,2 0 0 1 7,13.500093 2,2 0 0 1 8.9355469,14.996187 2,2 0 0 0 9,14.500093 a 2,2 0 0 0 -2,-2 z" style="opacity:0.2"/>
 <path style="fill:#ffffff" d="m 7,12.000094 a 2,2 0 0 0 -2,2 A 2,2 0 0 0 5.0644531,14.504 2,2 0 0 1 7,13.000094 2,2 0 0 1 8.9355469,14.496188 2,2 0 0 0 9,14.000094 a 2,2 0 0 0 -2,-2 z"/>
 <circle cx="17" cy="13" r="1" style="fill:#3f3f3f"/>
</svg>
